Simply-Green-Circles/scalable/apps/evolution-calendar.svg

<?xml version="1.0" encoding="UTF-8" standalone="no"?>
<svg
   xmlns:dc="http://purl.org/dc/elements/1.1/"
   xmlns:cc="http://creativecommons.org/ns#"
   xmlns:rdf="http://www.w3.org/1999/02/22-rdf-syntax-ns#"
   xmlns:svg="http://www.w3.org/2000/svg"
   xmlns="http://www.w3.org/2000/svg"
   xmlns:sodipodi="http://sodipodi.sourceforge.net/DTD/sodipodi-0.dtd"
   xmlns:inkscape="http://www.inkscape.org/namespaces/inkscape"
   width="48"
   height="48"
   viewBox="0 0 12.7 12.7"
   version="1.1"
   id="svg4"
   sodipodi:docname="evolution-calendar.svg"
   inkscape:version="0.92.4 (5da689c313, 2019-01-14)">
  <metadata
     id="metadata10">
    <rdf:RDF>
      <cc:Work
         rdf:about="">
        <dc:format>image/svg+xml</dc:format>
        <dc:type
           rdf:resource="http://purl.org/dc/dcmitype/StillImage" />
        <dc:title></dc:title>
      </cc:Work>
    </rdf:RDF>
  </metadata>
  <defs
     id="defs8" />
  <sodipodi:namedview
     pagecolor="#ffffff"
     bordercolor="#666666"
     borderopacity="1"
     objecttolerance="10"
     gridtolerance="10"
     guidetolerance="10"
     inkscape:pageopacity="0"
     inkscape:pageshadow="2"
     inkscape:window-width="1087"
     inkscape:window-height="480"
     id="namedview6"
     showgrid="false"
     inkscape:zoom="4.9166667"
     inkscape:cx="2.1355932"
     inkscape:cy="24"
     inkscape:window-x="0"
     inkscape:window-y="25"
     inkscape:window-maximized="0"
     inkscape:current-layer="svg4" />
  <path
     d="m 6.344,0.073 a 6.29,6.29 0 0 0 -6.29,6.29 6.29,6.29 0 0 0 6.29,6.288 6.29,6.29 0 0 0 6.29,-6.289 6.29,6.29 0 0 0 -6.29,-6.29 z M 6.326,1.009 A 5.407,5.407 0 0 1 11.733,6.416 5.407,5.407 0 0 1 6.326,11.823 5.407,5.407 0 0 1 0.92,6.416 5.407,5.407 0 0 1 6.326,1.01 Z M 4.214,2.353 A 0.504,0.504 0 0 0 3.709,2.858 v 0.807 h 1.01 V 2.858 A 0.504,0.504 0 0 0 4.214,2.353 Z m 4.267,0 A 0.504,0.504 0 0 0 7.976,2.858 v 0.807 h 1.01 V 2.858 A 0.504,0.504 0 0 0 8.481,2.353 Z m -6.16,1.54 v 1.38 h 0.01 V 8.83 c 0,0.417 0.16,0.774 0.482,1.07 0.322,0.297 0.71,0.446 1.164,0.446 h 4.755 c 0.454,0 0.841,-0.149 1.164,-0.445 0.322,-0.297 0.482,-0.654 0.482,-1.071 V 4.694 h -0.005 v -0.8 H 2.322 Z m 0.74,1.38 H 9.647 V 8.83 A 0.78,0.78 0 0 1 9.378,9.425 0.92,0.92 0 0 1 8.732,9.672 H 3.977 A 0.92,0.92 0 0 1 3.331,9.425 0.78,0.78 0 0 1 3.061,8.83 Z M 5.119,6.01 C 5.011,6.01 4.892,6.025 4.762,6.056 4.632,6.086 4.493,6.132 4.344,6.192 V 6.567 C 4.491,6.485 4.628,6.423 4.757,6.383 4.887,6.343 5.01,6.323 5.126,6.323 5.29,6.323 5.423,6.368 5.524,6.46 A 0.456,0.456 0 0 1 5.678,6.817 C 5.678,6.906 5.655,6.997 5.607,7.09 5.56,7.182 5.477,7.294 5.359,7.427 5.296,7.498 5.143,7.657 4.9,7.903 4.658,8.148 4.467,8.343 4.326,8.488 V 8.8 h 1.74 V 8.488 H 4.771 C 5.069,8.183 5.301,7.948 5.464,7.778 5.628,7.608 5.726,7.505 5.756,7.469 5.868,7.332 5.944,7.214 5.986,7.113 A 0.817,0.817 0 0 0 6.05,6.793 0.705,0.705 0 0 0 5.797,6.223 C 5.627,6.081 5.401,6.01 5.117,6.01 Z M 7.512,6.06 6.857,6.192 V 6.529 L 7.516,6.398 v 2.09 H 6.91 V 8.8 H 8.488 V 8.488 H 7.883 V 6.06 Z"
     id="path2"
     inkscape:connector-curvature="0"
     style="fill:#2ca02c" />
</svg>

<svg xmlns="http://www.w3.org/2000/svg" width="48" height="48" viewBox="0 0 12.7 12.7"><path fill="#2ca02c" d="M6.34.07a6.29 6.29 0 0 0-6.29 6.3 6.29 6.29 0 0 0 6.3 6.28 6.29 6.29 0 0 0 6.28-6.29A6.29 6.29 0 0 0 6.34.07zm-.01.94a5.4 5.4 0 0 1 5.4 5.4 5.4 5.4 0 0 1-5.4 5.41 5.4 5.4 0 0 1-5.41-5.4A5.4 5.4 0 0 1 6.32 1zM4.2 2.35a.5.5 0 0 0-.5.5v.82h1v-.81a.5.5 0 0 0-.5-.5zm4.27 0a.5.5 0 0 0-.5.5v.82h1v-.81a.5.5 0 0 0-.5-.5zM2.32 3.9v1.38h.01v3.56c0 .42.16.77.48 1.07.33.3.71.45 1.17.45h4.75c.46 0 .84-.15 1.17-.45.32-.3.48-.65.48-1.07V3.89H2.31zm.74 1.38h6.59v3.56a.78.78 0 0 1-.27.6.92.92 0 0 1-.65.24H3.98a.92.92 0 0 1-.65-.24.78.78 0 0 1-.27-.6V5.27zm2.06.74a2.84 2.84 0 0 0-.78.18v.38c.15-.09.29-.15.42-.19.13-.04.25-.06.37-.06.16 0 .3.05.4.14a.46.46 0 0 1 .15.36.6.6 0 0 1-.07.27c-.05.1-.13.2-.25.34l-.46.47-.57.59v.31h1.74v-.31h-1.3l.7-.71.29-.31c.1-.14.18-.26.23-.36a.82.82 0 0 0 .06-.32.7.7 0 0 0-.25-.57c-.17-.14-.4-.21-.68-.21zm2.4.05l-.66.13v.34l.66-.13v2.09H6.9v.31h1.58v-.31h-.6V6.06H7.5z"/></svg>
